assets/images/services1-icon1.svg

<svg width="64" height="63" viewBox="0 0 64 63" fill="none" xmlns="http://www.w3.org/2000/svg">
<path d="M0 60.6054V62.9998H56.6806V60.6054H33.3557L23.0475 29.4775H26.0424C28.5762 29.4775 30.6381 27.8661 30.6381 25.8859V22.2942H35.2339C36.081 22.2942 36.7658 21.7578 36.7658 21.097V12.7164C36.7658 12.0555 36.081 11.5192 35.2339 11.5192H30.6381V9.12471C30.6381 7.14451 28.5762 5.53304 26.0424 5.53304H24.5105V3.13859C24.5105 1.81805 23.1364 0.744141 21.4467 0.744141H15.3191C13.6294 0.744141 12.2553 1.81805 12.2553 3.13859V5.53304H10.7233C8.18957 5.53304 6.12763 7.14451 6.12763 9.12471V25.8859C6.12763 27.8661 8.18957 29.4775 10.7233 29.4775H13.7198L3.41002 60.6054H0ZM19.9148 60.6054V29.5745L30.1924 60.6054H19.9148ZM34 13.9136V19.8997H30.6381V13.9136H34ZM15.3191 3.13859H21.4467V5.53304H15.3191V3.13859ZM9.19144 25.5V12.7164H24.5105V10.3219H9.19144V9.12471C9.19144 8.46504 9.87774 7.92749 10.7233 7.92749H26.0424C26.888 7.92749 27.5743 8.46504 27.5743 9.12471V25.5C27.5743 26.1597 26.888 26.5 26.0424 26.5H10.7233C9.87774 26.5 9.19144 26.1597 9.19144 25.5ZM16.851 29.5745V60.6054H6.57341L16.851 29.5745Z" fill="#9C8679"/>
<path d="M46.7249 15.3457H41.2383V18.089H46.7249V15.3457Z" fill="#9C8679"/>
<path d="M54.9544 15.3457H49.4678V18.089H54.9544V15.3457Z" fill="#9C8679"/>
<path d="M63.1849 15.3457H57.6982V18.089H63.1849V15.3457Z" fill="#9C8679"/>
<path d="M45.3052 8.23013L40.5532 10.9729L41.9246 13.3489L46.6766 10.6061L45.3052 8.23013Z" fill="#9C8679"/>
<path d="M52.4326 4.11587L47.6807 6.85864L49.052 9.23463L53.804 6.49186L52.4326 4.11587Z" fill="#9C8679"/>
<path d="M59.5611 -9.37085e-05L54.8091 2.74268L56.1805 5.11866L60.9324 2.37589L59.5611 -9.37085e-05Z" fill="#9C8679"/>
<path d="M41.9241 20.0849L40.5527 22.4609L45.3047 25.2037L46.6761 22.8277L41.9241 20.0849Z" fill="#9C8679"/>
<path d="M49.0516 24.1999L47.6802 26.5759L52.4322 29.3187L53.8035 26.9427L49.0516 24.1999Z" fill="#9C8679"/>
<path d="M56.1773 28.3169L54.8057 30.6926L59.5571 33.4359L60.9288 31.0602L56.1773 28.3169Z" fill="#9C8679"/>
</svg>

<svg width="64" height="63" fill="none" xmlns="http://www.w3.org/2000/svg"><path d="M0 60.605V63h56.68v-2.395H33.357l-10.31-31.127h2.995c2.534 0 4.596-1.612 4.596-3.592v-3.592h4.596c.847 0 1.532-.536 1.532-1.197v-8.38c0-.662-.685-1.198-1.532-1.198h-4.596V9.125c0-1.98-2.062-3.592-4.596-3.592H24.51V3.139c0-1.32-1.374-2.395-3.063-2.395h-6.128c-1.69 0-3.064 1.074-3.064 2.395v2.394h-1.532c-2.533 0-4.595 1.612-4.595 3.592v16.76c0 1.981 2.062 3.592 4.595 3.592h2.997L3.41 60.605H0zm19.915 0v-31.03l10.277 31.03H19.915zM34 13.914V19.9h-3.362v-5.986H34zM15.32 3.139h6.127v2.394h-6.128V3.139zM9.19 25.5V12.716h15.32v-2.394H9.19V9.125c0-.66.687-1.198 1.532-1.198h15.32c.845 0 1.531.538 1.531 1.198V25.5c0 .66-.686 1-1.532 1H10.723c-.845 0-1.532-.34-1.532-1zm7.66 4.075v31.03H6.573l10.278-31.03zm29.875-14.229h-5.487v2.743h5.487v-2.743zm8.229 0h-5.486v2.743h5.486v-2.743zm8.231 0h-5.487v2.743h5.487v-2.743zM45.305 8.23l-4.752 2.743 1.372 2.376 4.752-2.743-1.372-2.376zm7.128-4.114L47.68 6.859l1.371 2.376 4.752-2.743-1.371-2.376zM59.561 0L54.81 2.743l1.372 2.376 4.751-2.743L59.562 0z" fill="#9C8679"/><path d="M41.924 20.085l-1.371 2.376 4.752 2.743 1.371-2.376-4.752-2.743zm7.128 4.115l-1.372 2.376 4.752 2.743 1.371-2.376-4.751-2.743zm7.125 4.117l-1.371 2.376 4.751 2.743 1.372-2.376-4.752-2.743z" fill="#9C8679"/></svg>
